X: 564
T: Hailian hua
L: 1/8
M: 2/4
K: A
e2d c [I:setbarnb 1]| 
B4 | 
A2F A | 
B4 | 
c ef2 | 
ae2c | 
B2F A | 
B2z2 | 
F AB2 | 
B c F E | 
e c e f | 
A4 | 
F AB2 | 
cE2C | 
E C E F | 
E4 | 
e e/ c/ e f | 
A4 | 
F AB2 | 
cE2C | 
E C E F | 
E4 |]

@@@ Tune index: 9438
